X:135
T:Rose Tree, The
R:Reel
O:England
M:4/4
K:D
fe|\
d2B2 A2F2|ABAF A2AB|d2cd e2de|f2e2 egfe|\
d2B2 A2F2|ABAF A2AB|d2cd e2de|f2d2 d2::
de|\
f2e2 f2g2|a2ba g2f2|e2b2 b2a2|b2e2 egfe|\
d2B2 A2F2|ABAF A2AB|d2cd e2de|f2d2 d2:|
